X: 45
T:Starry Nights of Shetland
% Nottingham Music Database
S:Kevin Briggs
M:3/4
L:1/4
K:C
G|"C"e2c|"C"GAG|"Dm"F3|"Dm"B2A|"G"G2B|"G"d2G|"C"e3-|"C"e2G|"C"e2c|
"C"GAG|"Dm"F3|"Dm"B2A|"G"G3/2B/2d/2e/2|"G7"fAB|"C"c3-|"C"cde|"F"fAf|
"F"fAf|"C"eGe|"C"eGe|"C"ece|"Am"gfe|"Dm"d3-|"G7"d2G|
"C"e2c|"C"GAG|"Dm"F3|"Dm"B2A|"G"G3/2B/2d/2e/2|"G7"fAB|"C"c3-|"C"c2||<end>
<start>
